X:1
T:The Bonny Lass That Didna' Marry Me
C:N Grant and A Stewart
S:Thomas Bending, August 2002
H:was Anon014
M:6/8
L:1/8
R:Jig
Q:1/8=375
K:G
B2 B B^AB | c2 B A2 G | E2 E A2 B | c6 |\
A2 A A^GA | B2 A F2 D | E2 D G2 A | B6 |]
